images/marker.svg

<svg width="58" height="73" viewBox="0 0 58 73" fill="none" xmlns="http://www.w3.org/2000/svg">
  <path
    d="M29 0C18.913 0 0 7.68421 0 29.4561C0 51.2281 29 73 29 73C29 73 58 51.2281 58 29.4561C58 7.68421 39.087 0 29 0Z"
    fill="#E01F3D" />
  <path
    d="M29 33.8105C31.5184 33.8105 33.5789 31.7358 33.5789 29.2C33.5789 26.6642 31.5184 24.5894 29 24.5894C26.4816 24.5894 24.421 26.6642 24.421 29.2C24.421 31.7358 26.4816 33.8105 29 33.8105ZM29 13.8315C27.4737 13.8315 25.871 14.0621 24.421 14.5231V23.0526C27.7789 20.5168 32.5868 21.2084 35.1053 24.5894C37.6237 27.9705 36.9368 32.8115 33.5789 35.3473C30.221 37.8831 25.4132 37.1915 22.8947 33.8105C21.9026 32.5042 21.3684 30.8905 21.3684 29.2V15.9063C14.0421 20.1326 11.6 29.5073 15.7974 36.8842C19.9947 44.261 29.3053 46.72 36.6316 42.4936C43.9579 38.2673 46.4 28.8926 42.2026 21.5158C39.5316 16.7515 34.4947 13.8315 29 13.8315Z"
    fill="white" />
</svg>

<svg width="58" height="73" fill="none" xmlns="http://www.w3.org/2000/svg"><path d="M29 0C18.913 0 0 7.684 0 29.456S29 73 29 73s29-21.772 29-43.544S39.087 0 29 0z" fill="#E01F3D"/><path d="M29 33.81c2.518 0 4.579-2.074 4.579-4.61 0-2.536-2.06-4.61-4.579-4.61-2.518 0-4.579 2.074-4.579 4.61 0 2.536 2.06 4.61 4.579 4.61zm0-19.979a15.39 15.39 0 00-4.579.692v8.53c3.358-2.536 8.166-1.845 10.684 1.536 2.519 3.382 1.832 8.223-1.526 10.758-3.358 2.536-8.166 1.844-10.684-1.537a7.598 7.598 0 01-1.527-4.61V15.906c-7.326 4.227-9.768 13.601-5.57 20.978 4.197 7.377 13.507 9.836 20.834 5.61 7.326-4.227 9.768-13.601 5.57-20.978-2.67-4.764-7.707-7.684-13.202-7.684z" fill="#fff"/></svg>
